src/pos-icons/summit.svg

<svg height="24" viewBox="0 0 24 24" width="24" xmlns="http://www.w3.org/2000/svg"><path d="m15 3h2l5 2-5 2v3.17l5 10.83h-20l6-8 3.5 4.7 3.5-7.53z"/></svg>

<?xml version="1.0" encoding="UTF-8"?><!DOCTYPE svg PUBLIC "-//W3C//DTD SVG 1.1//EN" "http://www.w3.org/Graphics/SVG/1.1/DTD/svg11.dtd"><svg xmlns="http://www.w3.org/2000/svg" xmlns:xlink="http://www.w3.org/1999/xlink" version="1.1" id="mdi-summit" width="24" height="24" viewBox="0 0 24 24"><path d="M15,3H17L22,5L17,7V10.17L22,21H2L8,13L11.5,17.7L15,10.17V3Z" /></svg>
